X: 84
T:Walts Morris
T:Morris' Waltz
M:3/4
L:1/4
Q:100
S:Cadw Twmpath Collection
R:Waltz
A:Wales
Z:brian_martin12345@yahoo.com
K:D
D|DAF|DAG|EAG|EAG|FAd|dcd|fee|e3|
DAF|DAG|EAG|EAG|FAd|dcd|edd|d2:||
d|f3|fed|fee|e3|Ace|Ace|edd|d2:||
z|A3|AFG|A3|AFG|FAd|dcd|fed|cBA|
G3|FEF|G3|FEF|GBA|GFE|FDD|D2:||
